icons/svg/sport/climbing_adventure.svg

<?xml version="1.0" encoding="UTF-8" standalone="no"?>
<!-- Created with Inkscape (http://www.inkscape.org/) -->

<svg
   xmlns:dc="http://purl.org/dc/elements/1.1/"
   xmlns:cc="http://creativecommons.org/ns#"
   xmlns:rdf="http://www.w3.org/1999/02/22-rdf-syntax-ns#"
   xmlns:svg="http://www.w3.org/2000/svg"
   xmlns="http://www.w3.org/2000/svg"
   xmlns:sodipodi="http://sodipodi.sourceforge.net/DTD/sodipodi-0.dtd"
   xmlns:inkscape="http://www.inkscape.org/namespaces/inkscape"
   version="1.0"
   width="580"
   height="580"
   id="svg2"
   sodipodi:version="0.32"
   inkscape:version="0.91 r13725"
   sodipodi:docname="climbing_adventure.svg"
   inkscape:output_extension="org.inkscape.output.svg.inkscape">
  <metadata
     id="metadata2975">
    <rdf:RDF>
      <cc:Work
         rdf:about="">
        <dc:format>image/svg+xml</dc:format>
        <dc:type
           rdf:resource="http://purl.org/dc/dcmitype/StillImage" />
        <cc:license
           rdf:resource="http://web.resource.org/cc/PublicDomain" />
        <dc:language>en</dc:language>
      </cc:Work>
    </rdf:RDF>
  </metadata>
  <sodipodi:namedview
     inkscape:window-height="1006"
     inkscape:window-width="1920"
     inkscape:pageshadow="2"
     inkscape:pageopacity="0.0"
     guidetolerance="10.0"
     gridtolerance="10.0"
     objecttolerance="10.0"
     borderopacity="1.0"
     bordercolor="#666666"
     pagecolor="#ffffff"
     id="base"
     inkscape:zoom="0.46083856"
     inkscape:cx="462.07968"
     inkscape:cy="358.68877"
     inkscape:window-x="1920"
     inkscape:window-y="0"
     inkscape:current-layer="svg2"
     showgrid="false"
     inkscape:window-maximized="1" />
  <defs
     id="defs4">
    <inkscape:perspective
       sodipodi:type="inkscape:persp3d"
       inkscape:vp_x="0 : 290 : 1"
       inkscape:vp_y="0 : 1000 : 0"
       inkscape:vp_z="580 : 290 : 1"
       inkscape:persp3d-origin="290 : 193.33333 : 1"
       id="perspective2441" />
    <inkscape:perspective
       id="perspective3452"
       inkscape:persp3d-origin="30 : 20 : 1"
       inkscape:vp_z="60 : 30 : 1"
       inkscape:vp_y="0 : 1000 : 0"
       inkscape:vp_x="0 : 30 : 1"
       sodipodi:type="inkscape:persp3d" />
    <symbol
       viewBox="244.5 110 489 219.9"
       id="symbol-university">
      <path
         id="path4460"
         d="M79,43l57,119c0,0,21-96,104-96s124,106,124,106l43-133l82-17L0,17L79,43z" />
      <path
         id="path4462"
         d="M94,176l-21,39"
         stroke-width="20"
         stroke="#000000"
         fill="none" />
      <path
         id="path4464"
         d="M300,19c0,10.5-22.6,19-50.5,19S199,29.5,199,19s22.6-19,50.5-19S300,8.5,300,19z" />
      <path
         id="path4466"
         d="M112,216l-16-38L64,88c0,0-9-8-4-35s16-24,16-24"
         stroke-width="20"
         stroke="#000000"
         ill="none" />
    </symbol>
    <inkscape:perspective
       id="perspective4471"
       inkscape:persp3d-origin="372.04724 : 350.78739 : 1"
       inkscape:vp_z="744.09448 : 526.18109 : 1"
       inkscape:vp_y="0 : 1000 : 0"
       inkscape:vp_x="0 : 526.18109 : 1"
       sodipodi:type="inkscape:persp3d" />
    <inkscape:perspective
       id="perspective4668"
       inkscape:persp3d-origin="6 : 4 : 1"
       inkscape:vp_z="12 : 6 : 1"
       inkscape:vp_y="0 : 1000 : 0"
       inkscape:vp_x="0 : 6 : 1"
       sodipodi:type="inkscape:persp3d" />
  </defs>
  <g
     id="g1327">
    <path
       d="M 66.275,1.768 C 24.94,1.768 1.704,23.139 1.704,66.804 L 1.704,516.927 C 1.704,557.771 22.599,579.156 63.896,579.156 L 515.92,579.156 C 557.227,579.156 578.149,558.841 578.149,516.927 L 578.149,66.804 C 578.149,24.203 557.227,1.768 514.628,1.768 C 514.624,1.768 66.133,1.625 66.275,1.768 z "
       style="fill:#111;stroke:#eee;stroke-width:3.40799999"
       id="path1329" />
  </g>
  <ellipse
     style="color:#000000;clip-rule:nonzero;display:inline;overflow:visible;visibility:visible;opacity:1;isolation:auto;mix-blend-mode:normal;color-interpolation:sRGB;color-interpolation-filters:linearRGB;solid-color:#000000;solid-opacity:1;fill:#ffffff;fill-opacity:1;fill-rule:nonzero;stroke:#ffffff;stroke-width:35;stroke-linecap:round;stroke-linejoin:miter;stroke-miterlimit:4;stroke-dasharray:none;stroke-dashoffset:0;stroke-opacity:1;marker:none;color-rendering:auto;image-rendering:auto;shape-rendering:auto;text-rendering:auto;enable-background:accumulate"
     id="path4144"
     cx="307.85114"
     cy="158.03236"
     rx="20.96563"
     ry="21.152966" />
  <path
     style="fill:none;fill-rule:evenodd;stroke:#ffffff;stroke-width:45;stroke-linecap:round;stroke-linejoin:round;stroke-miterlimit:4;stroke-dasharray:none;stroke-opacity:1"
     d="M 177.30041,161.88785 205.0225,256.49529 319.5876,234.48656 426.29742,190.59426 414.85629,89.202542"
     id="path4146"
     inkscape:connector-curvature="0"
     sodipodi:nodetypes="ccccc" />
  <rect
     style="color:#000000;clip-rule:nonzero;display:inline;overflow:visible;visibility:visible;opacity:1;isolation:auto;mix-blend-mode:normal;color-interpolation:sRGB;color-interpolation-filters:linearRGB;solid-color:#000000;solid-opacity:1;fill:#ffffff;fill-opacity:1;fill-rule:nonzero;stroke:#ffffff;stroke-width:37;stroke-linecap:round;stroke-linejoin:round;stroke-miterlimit:4;stroke-dasharray:none;stroke-dashoffset:0;stroke-opacity:1;marker:none;color-rendering:auto;image-rendering:auto;shape-rendering:auto;text-rendering:auto;enable-background:accumulate"
     id="rect4148"
     width="61.219646"
     height="129.45616"
     x="287.61172"
     y="237.78894"
     rx="0"
     ry="0" />
  <path
     style="fill:none;fill-rule:evenodd;stroke:#ffffff;stroke-width:45;stroke-linecap:round;stroke-linejoin:round;stroke-miterlimit:4;stroke-dasharray:none;stroke-opacity:1"
     d="m 306.90012,357.09167 -94.76467,35.53698 24.32014,62.61278"
     id="path4150"
     inkscape:connector-curvature="0"
     sodipodi:nodetypes="ccc" />
  <path
     style="fill:none;fill-rule:evenodd;stroke:#ffffff;stroke-width:45;stroke-linecap:round;stroke-linejoin:round;stroke-miterlimit:4;stroke-dasharray:none;stroke-opacity:1"
     d="m 337.92925,352.01495 43.60851,77.84292 -26.83602,103.22648"
     id="path4152"
     inkscape:connector-curvature="0" />
  <path
     style="color:#000000;clip-rule:nonzero;display:inline;overflow:visible;visibility:visible;opacity:1;isolation:auto;mix-blend-mode:normal;color-interpolation:sRGB;color-interpolation-filters:linearRGB;solid-color:#000000;solid-opacity:1;fill:#ffffff;fill-opacity:1;fill-rule:nonzero;stroke:none;stroke-width:45;stroke-linecap:round;stroke-linejoin:round;stroke-miterlimit:4;stroke-dasharray:none;stroke-dashoffset:0;stroke-opacity:1;marker:none;color-rendering:auto;image-rendering:auto;shape-rendering:auto;text-rendering:auto;enable-background:accumulate"
     d="m 495.3103,339.94399 c 0,14.34907 -18.73201,3.97359 -42.38748,9.29914 -30.31378,6.82452 -45.4206,5.04995 -45.4206,-9.29914 0,-14.34908 19.6565,-25.9813 43.90405,-25.9813 24.24753,0 43.90403,11.63223 43.90403,25.9813 z"
     id="path4154"
     inkscape:connector-curvature="0"
     sodipodi:nodetypes="sssss" />
  <path
     style="color:#000000;clip-rule:nonzero;display:inline;overflow:visible;visibility:visible;opacity:1;isolation:auto;mix-blend-mode:normal;color-interpolation:sRGB;color-interpolation-filters:linearRGB;solid-color:#000000;solid-opacity:1;fill:#ffffff;fill-opacity:1;fill-rule:nonzero;stroke:none;stroke-width:45;stroke-linecap:round;stroke-linejoin:round;stroke-miterlimit:4;stroke-dasharray:none;stroke-dashoffset:0;stroke-opacity:1;marker:none;color-rendering:auto;image-rendering:auto;shape-rendering:auto;text-rendering:auto;enable-background:accumulate"
     d="m 84.689696,332.92144 c 0,18.94522 13.045087,-4.10318 36.486334,-0.18836 40.4649,6.75788 64.64405,16.01707 64.64405,-2.92815 0,-18.94524 -11.14918,-31.18687 -43.16344,-31.18687 -32.01427,0 -57.966944,15.35816 -57.966944,34.30338 z"
     id="path4154-3"
     inkscape:connector-curvature="0"
     sodipodi:nodetypes="sssss" />
  <path
     style="color:#000000;clip-rule:nonzero;display:inline;overflow:visible;visibility:visible;opacity:1;isolation:auto;mix-blend-mode:normal;color-interpolation:sRGB;color-interpolation-filters:linearRGB;solid-color:#000000;solid-opacity:1;fill:#ffffff;fill-opacity:1;fill-rule:nonzero;stroke:none;stroke-width:45;stroke-linecap:round;stroke-linejoin:round;stroke-miterlimit:4;stroke-dasharray:none;stroke-dashoffset:0;stroke-opacity:1;marker:none;color-rendering:auto;image-rendering:auto;shape-rendering:auto;text-rendering:auto;enable-background:accumulate"
     d="m 189.24764,501.52523 c 0,-16.85648 33.8233,6.94123 61.08027,-1.33114 28.27513,-8.58137 42.07173,-15.52536 42.07173,1.33114 0,16.85648 -23.09135,30.52137 -51.57601,30.52137 -28.48463,0 -51.57599,-13.6649 -51.57599,-30.52137 z"
     id="path4154-6"
     inkscape:connector-curvature="0"
     sodipodi:nodetypes="sssss" />
  <path
     style="color:#000000;clip-rule:nonzero;display:inline;overflow:visible;visibility:visible;opacity:1;isolation:auto;mix-blend-mode:normal;color-interpolation:sRGB;color-interpolation-filters:linearRGB;solid-color:#000000;solid-opacity:1;fill:#ffffff;fill-opacity:1;fill-rule:nonzero;stroke:none;stroke-width:45;stroke-linecap:round;stroke-linejoin:round;stroke-miterlimit:4;stroke-dasharray:none;stroke-dashoffset:0;stroke-opacity:1;marker:none;color-rendering:auto;image-rendering:auto;shape-rendering:auto;text-rendering:auto;enable-background:accumulate"
     d="m 443.58251,45.727376 c 3.33786,13.955447 -27.52003,-4.252048 -45.01375,4.32299 -22.7325,11.142963 -22.0413,23.453188 -27.71051,22.842995 -2.28513,-0.245957 -9.21463,-7.620602 -10.17353,-11.629725 -3.33787,-13.955458 2.52682,-33.461297 26.10922,-39.101726 23.58237,-5.640426 53.45071,9.610019 56.78857,23.565466 z"
     id="path4154-7"
     inkscape:connector-curvature="0"
     sodipodi:nodetypes="ssssss" />
</svg>

<svg width="580" height="580" viewBox="0 0 580 580" fill="none" xmlns="http://www.w3.org/2000/svg">
<g clip-path="url(#clip0)">
<path d="M66.2751 1.76815C24.9401 1.76815 1.7041 23.1391 1.7041 66.8041V516.927C1.7041 557.771 22.5991 579.156 63.8961 579.156H515.92C557.227 579.156 578.149 558.841 578.149 516.927V66.8041C578.149 24.2031 557.227 1.76815 514.628 1.76815C514.624 1.76815 66.1331 1.62515 66.2751 1.76815Z" fill="#111111" stroke="#EEEEEE" stroke-width="3.408"/>
<path d="M307.851 179.185C319.43 179.185 328.817 169.715 328.817 158.032C328.817 146.35 319.43 136.879 307.851 136.879C296.272 136.879 286.886 146.35 286.886 158.032C286.886 169.715 296.272 179.185 307.851 179.185Z" fill="white" stroke="white" stroke-width="35" stroke-linecap="round"/>
<path d="M177.3 161.888L205.022 256.495L319.587 234.487L426.297 190.594L414.856 89.2026" stroke="white" stroke-width="45" stroke-linecap="round" stroke-linejoin="round"/>
<path d="M348.831 237.789H287.612V367.245H348.831V237.789Z" fill="white" stroke="white" stroke-width="37" stroke-linecap="round" stroke-linejoin="round"/>
<path d="M306.9 357.092L212.135 392.629L236.455 455.242" stroke="white" stroke-width="45" stroke-linecap="round" stroke-linejoin="round"/>
<path d="M337.929 352.015L381.538 429.858L354.702 533.085" stroke="white" stroke-width="45" stroke-linecap="round" stroke-linejoin="round"/>
<path d="M495.311 339.944C495.311 354.293 476.579 343.918 452.923 349.243C422.609 356.068 407.502 354.293 407.502 339.944C407.502 325.595 427.159 313.963 451.406 313.963C475.654 313.963 495.311 325.595 495.311 339.944Z" fill="white"/>
<path d="M84.6897 332.922C84.6897 351.867 97.7348 328.818 121.176 332.733C161.641 339.491 185.82 348.75 185.82 329.805C185.82 310.86 174.671 298.618 142.657 298.618C110.642 298.618 84.6897 313.976 84.6897 332.922V332.922Z" fill="white"/>
<path d="M189.248 501.525C189.248 484.669 223.071 508.467 250.328 500.194C278.603 491.613 292.4 484.669 292.4 501.525C292.4 518.382 269.308 532.047 240.824 532.047C212.339 532.047 189.248 518.382 189.248 501.525Z" fill="white"/>
<path d="M443.583 45.7276C446.921 59.683 416.063 41.4755 398.569 50.0506C375.837 61.1935 376.528 73.5038 370.859 72.8936C368.573 72.6476 361.644 65.273 360.685 61.2639C357.347 47.3084 363.212 27.8026 386.794 22.1621C410.377 16.5217 440.245 31.7721 443.583 45.7276V45.7276Z" fill="white"/>
</g>
<defs>
<clipPath id="clip0">
<path d="M0 0H580V580H0V0Z" fill="white"/>
</clipPath>
</defs>
</svg>
